; generated by PrusaSlicer 2.0.0+win64 on 2020-07-01 at 13:35:14

; 

; external perimeters extrusion width = 0.45mm
; perimeters extrusion width = 0.45mm
; infill extrusion width = 0.45mm
; solid infill extrusion width = 0.45mm
; top infill extrusion width = 0.40mm
; support material extrusion width = 0.35mm
; first layer extrusion width = 0.42mm

M73 P0 R35
M73 Q0 S35
M201 X1000 Y1000 Z200 E5000 ; sets maximum accelerations, mm/sec^2
M203 X200 Y200 Z12 E120 ; sets maximum feedrates, mm/sec
M204 P1250 R1250 T1250 ; sets acceleration (P, T) and retract acceleration (R), mm/sec^2
M205 X8.00 Y8.00 Z0.40 E1.50 ; sets the jerk limits, mm/sec
M205 S0 T0 ; sets the minimum extruding and travel feed rate, mm/sec
M107
M115 U3.9.0 ; tell printer latest fw version
G90 ; use absolute coordinates
M83 ; extruder relative mode
M104 S215 ; set extruder temp
M140 S60 ; set bed temp
M190 S60 ; wait for bed temp
M109 S215 ; wait for extruder temp
G28 W ; home all without mesh bed level
G80 ; mesh bed leveling
G1 Y-3.0 F1000.0 ; go outside print area
G92 E0.0
G1 X60.0 E9.0 F1000.0 ; intro line
M73 Q0 S35
M73 P0 R35
G1 X100.0 E12.5 F1000.0 ; intro line
G92 E0.0
M221 S95
M900 K30 ; Filament gcode
G21 ; set units to millimeters
G90 ; use absolute coordinates
M83 ; use relative distances for extrusion
;BEFORE_LAYER_CHANGE
G92 E0.0
;0.2


G1 E-0.80000 F2100.00000
G1 Z0.600 F10800.000
;AFTER_LAYER_CHANGE
;0.2
G1 X105.653 Y94.592
G1 Z0.200
G1 E0.80000 F2100.00000
M204 S1000
G1 F1200
G1 X106.174 Y94.208 E0.02029
G1 X106.767 Y93.969 E0.02005
G1 X107.401 Y93.884 E0.02005
G1 X142.582 Y93.884 E1.10307
G1 X143.345 Y94.002 E0.02423
G1 X144.039 Y94.341 E0.02423
G1 X144.601 Y94.872 E0.02423
G1 X144.979 Y95.546 E0.02423
G1 X145.142 Y96.373 E0.02643
G1 X145.135 Y100.659 E0.13439
G1 X142.027 Y114.160 E0.43437
G1 X141.569 Y115.048 E0.03131
G1 X140.811 Y115.691 E0.03119
G1 X140.222 Y115.929 E0.01992
G1 X139.588 Y116.015 E0.02005
G1 X107.351 Y116.015 E1.01077
G1 X106.696 Y115.911 E0.02079
G1 X106.090 Y115.643 E0.02079
G1 X105.575 Y115.231 E0.02066
G1 X105.181 Y114.698 E0.02079
G1 X104.945 Y114.117 E0.01968
G1 X104.857 Y113.495 E0.01968
G1 X104.860 Y96.327 E0.53828
G1 X104.973 Y95.686 E0.02042
G1 X105.242 Y95.097 E0.02029
G1 X105.615 Y94.639 E0.01854
G1 F8640
G1 X106.174 Y94.208 E-0.16290
G1 X106.767 Y93.969 E-0.14764
G1 X107.401 Y93.884 E-0.14764
G1 X108.708 Y93.884 E-0.30182
G1 E-0.04000 F2100.00000
G1 Z0.800 F10800.000
G1 X141.272 Y114.816
G1 Z0.200
G1 E0.80000 F2100.00000
G1 F1200
G1 X140.610 Y115.371 E0.02709
G1 X140.112 Y115.568 E0.01680
G1 X139.581 Y115.638 E0.01680
G1 X107.367 Y115.638 E1.01002
G1 X106.802 Y115.549 E0.01794
G1 X106.282 Y115.318 E0.01783
G1 X105.837 Y114.959 E0.01794
G1 X105.500 Y114.497 E0.01794
G1 X105.305 Y114.005 E0.01658
G1 X105.234 Y113.481 E0.01658
G1 X105.236 Y96.355 E0.53699
G1 X105.332 Y95.802 E0.01760
G1 X105.565 Y95.292 E0.01760
G1 X105.921 Y94.857 E0.01760
G1 X106.376 Y94.528 E0.01760
G1 X106.874 Y94.331 E0.01680
G1 X107.405 Y94.262 E0.01680
G1 X142.581 Y94.261 E1.10292
G1 X143.247 Y94.366 E0.02112
G1 X143.852 Y94.670 E0.02123
G1 X144.335 Y95.145 E0.02123
G1 X144.649 Y95.744 E0.02123
G1 X144.766 Y96.404 E0.02100
G1 X144.757 Y100.654 E0.13327
G1 X141.668 Y114.044 E0.43084
G1 X141.300 Y114.762 E0.02533
G1 F8640
G1 X140.610 Y115.371 E-0.21237
G1 X140.112 Y115.568 E-0.12374
G1 X139.581 Y115.638 E-0.12374
G1 X138.281 Y115.638 E-0.30014
G1 E-0.04000 F2100.00000
G1 Z0.800 F10800.000
G1 X138.975 Y112.863
G1 Z0.200
G1 E0.80000 F2100.00000
G1 F1200
G1 X108.009 Y112.863 E0.97090
G1 X108.009 Y97.037 E0.49621
G1 X141.991 Y97.037 E1.06546
G1 X141.991 Y99.863 E0.08860
G1 X138.975 Y99.863 E0.09456
G1 X138.975 Y112.803 E0.40572
G1 F8640
G1 X135.683 Y112.809 E-0.76000
G1 E-0.04000 F2100.00000
G1 Z0.800 F10800.000
G1 X139.352 Y100.240
G1 Z0.200
G1 E0.80000 F2100.00000
G1 F1200
G1 X139.352 Y113.240 E0.40761
G1 X107.632 Y113.240 E0.99455
G1 X107.632 Y96.660 E0.51985
G1 X142.368 Y96.660 E1.08911
G1 X142.368 Y100.240 E0.11225
G1 X139.412 Y100.240 E0.09268
G1 X138.969 Y100.354 F10800.000
G1 F8640
G1 X139.397 Y103.531 E-0.76000
G1 E-0.04000 F2100.00000
G1 Z0.800 F10800.000
G1 X141.878 Y97.918
G1 Z0.200
G1 E0.80000 F2100.00000
G1 F1200
G1 X141.279 Y97.320 E0.02674
G1 X140.742 Y97.320 E0.01697
G1 X141.708 Y98.286 E0.04317
G1 X141.708 Y98.823 E0.01697
G1 X140.204 Y97.320 E0.06717
G1 X139.667 Y97.320 E0.01697
G1 X141.708 Y99.361 E0.09117
G1 X141.708 Y99.580 E0.00693
G1 X141.390 Y99.580 E0.01004
G1 X139.130 Y97.320 E0.10098
G1 X138.593 Y97.320 E0.01697
G1 X140.853 Y99.580 E0.10098
G1 X140.316 Y99.580 E0.01697
G1 X138.055 Y97.320 E0.10098
G1 X137.518 Y97.320 E0.01697
G1 X139.778 Y99.580 E0.10098
G1 X139.241 Y99.580 E0.01697
G1 X136.981 Y97.320 E0.10098
G1 X136.443 Y97.320 E0.01697
G1 X138.704 Y99.580 E0.10098
G1 X138.692 Y100.106 E0.01661
G1 X135.906 Y97.320 E0.12446
G1 X135.369 Y97.320 E0.01697
G1 X138.692 Y100.643 E0.14846
G1 X138.692 Y101.180 E0.01697
G1 X134.832 Y97.320 E0.17247
G1 X134.294 Y97.320 E0.01697
G1 X138.692 Y101.718 E0.19647
G1 X138.692 Y102.255 E0.01697
G1 X133.757 Y97.320 E0.22047
G1 X133.220 Y97.320 E0.01697
G1 X138.692 Y102.792 E0.24448
G1 X138.692 Y103.329 E0.01697
G1 X132.682 Y97.320 E0.26848
G1 X132.145 Y97.320 E0.01697
G1 X138.692 Y103.867 E0.29248
G1 X138.692 Y104.404 E0.01697
G1 X131.608 Y97.320 E0.31649
G1 X131.071 Y97.320 E0.01697
G1 X138.692 Y104.941 E0.34049
G1 X138.692 Y105.479 E0.01697
G1 X130.533 Y97.320 E0.36449
G1 X129.996 Y97.320 E0.01697
G1 X138.692 Y106.016 E0.38850
G1 X138.692 Y106.553 E0.01697
G1 X129.459 Y97.320 E0.41250
G1 X128.921 Y97.320 E0.01697
G1 X138.692 Y107.090 E0.43650
G1 X138.692 Y107.628 E0.01697
G1 X128.384 Y97.320 E0.46051
G1 X127.847 Y97.320 E0.01697
G1 X138.692 Y108.165 E0.48451
G1 X138.692 Y108.702 E0.01697
G1 X127.310 Y97.320 E0.50851
G1 X126.772 Y97.320 E0.01697
G1 X138.692 Y109.240 E0.53252
G1 X138.692 Y109.777 E0.01697
G1 X126.235 Y97.320 E0.55652
G1 X125.698 Y97.320 E0.01697
G1 X138.692 Y110.314 E0.58052
G1 X138.692 Y110.851 E0.01697
G1 X125.160 Y97.320 E0.60453
G1 X124.623 Y97.320 E0.01697
G1 X138.692 Y111.389 E0.62853
G1 X138.692 Y111.926 E0.01697
G1 X124.086 Y97.320 E0.65253
G1 X123.549 Y97.320 E0.01697
G1 X138.692 Y112.463 E0.67654
G1 X138.692 Y112.580 E0.00369
G1 X138.272 Y112.580 E0.01328
G1 X123.011 Y97.320 E0.68176
G1 X122.474 Y97.320 E0.01697
G1 X137.734 Y112.580 E0.68176
G1 X137.197 Y112.580 E0.01697
G1 X121.937 Y97.320 E0.68176
G1 X121.399 Y97.320 E0.01697
G1 X136.660 Y112.580 E0.68176
G1 X136.122 Y112.580 E0.01697
G1 X120.862 Y97.320 E0.68176
G1 X120.325 Y97.320 E0.01697
G1 X135.585 Y112.580 E0.68176
G1 X135.048 Y112.580 E0.01697
G1 X119.788 Y97.320 E0.68176
G1 X119.250 Y97.320 E0.01697
G1 X134.511 Y112.580 E0.68176
G1 X133.973 Y112.580 E0.01697
G1 X118.713 Y97.320 E0.68176
G1 X118.176 Y97.320 E0.01697
G1 X133.436 Y112.580 E0.68176
G1 X132.899 Y112.580 E0.01697
G1 X117.639 Y97.320 E0.68176
G1 X117.101 Y97.320 E0.01697
G1 X132.361 Y112.580 E0.68176
G1 X131.824 Y112.580 E0.01697
G1 X116.564 Y97.320 E0.68176
M73 Q3 S34
G1 X116.027 Y97.320 E0.01697
G1 X131.287 Y112.580 E0.68176
M73 P3 R34
G1 X130.750 Y112.580 E0.01697
G1 X115.489 Y97.320 E0.68176
G1 X114.952 Y97.320 E0.01697
G1 X130.212 Y112.580 E0.68176
G1 X129.675 Y112.580 E0.01697
G1 X114.415 Y97.320 E0.68176
G1 X113.878 Y97.320 E0.01697
G1 X129.138 Y112.580 E0.68176
G1 X128.600 Y112.580 E0.01697
G1 X113.340 Y97.320 E0.68176
G1 X112.803 Y97.320 E0.01697
G1 X128.063 Y112.580 E0.68176
G1 X127.526 Y112.580 E0.01697
G1 X112.266 Y97.320 E0.68176
G1 X111.728 Y97.320 E0.01697
G1 X126.989 Y112.580 E0.68176
G1 X126.451 Y112.580 E0.01697
G1 X111.191 Y97.320 E0.68176
G1 X110.654 Y97.320 E0.01697
G1 X125.914 Y112.580 E0.68176
G1 X125.377 Y112.580 E0.01697
G1 X110.117 Y97.320 E0.68176
G1 X109.579 Y97.320 E0.01697
G1 X124.840 Y112.580 E0.68176
G1 X124.302 Y112.580 E0.01697
G1 X109.042 Y97.320 E0.68176
G1 X108.505 Y97.320 E0.01697
G1 X123.765 Y112.580 E0.68176
G1 X123.228 Y112.580 E0.01697
G1 X108.292 Y97.645 E0.66725
G1 X108.292 Y98.182 E0.01697
G1 X122.690 Y112.580 E0.64325
G1 X122.153 Y112.580 E0.01697
G1 X108.292 Y98.719 E0.61924
G1 X108.292 Y99.256 E0.01697
G1 X121.616 Y112.580 E0.59524
G1 X121.079 Y112.580 E0.01697
G1 X108.292 Y99.794 E0.57124
G1 X108.292 Y100.331 E0.01697
G1 X120.541 Y112.580 E0.54723
G1 X120.004 Y112.580 E0.01697
G1 X108.292 Y100.868 E0.52323
G1 X108.292 Y101.406 E0.01697
G1 X119.467 Y112.580 E0.49923
G1 X118.929 Y112.580 E0.01697
G1 X108.292 Y101.943 E0.47522
G1 X108.292 Y102.480 E0.01697
G1 X118.392 Y112.580 E0.45122
G1 X117.855 Y112.580 E0.01697
G1 X108.292 Y103.017 E0.42722
G1 X108.292 Y103.555 E0.01697
G1 X117.318 Y112.580 E0.40321
G1 X116.780 Y112.580 E0.01697
G1 X108.292 Y104.092 E0.37921
G1 X108.292 Y104.629 E0.01697
G1 X116.243 Y112.580 E0.35521
G1 X115.706 Y112.580 E0.01697
G1 X108.292 Y105.167 E0.33120
G1 X108.292 Y105.704 E0.01697
G1 X115.168 Y112.580 E0.30720
G1 X114.631 Y112.580 E0.01697
G1 X108.292 Y106.241 E0.28320
G1 X108.292 Y106.778 E0.01697
G1 X114.094 Y112.580 E0.25919
G1 X113.557 Y112.580 E0.01697
G1 X108.292 Y107.316 E0.23519
G1 X108.292 Y107.853 E0.01697
G1 X113.019 Y112.580 E0.21119
G1 X112.482 Y112.580 E0.01697
G1 X108.292 Y108.390 E0.18718
G1 X108.292 Y108.928 E0.01697
G1 X111.945 Y112.580 E0.16318
G1 X111.407 Y112.580 E0.01697
G1 X108.292 Y109.465 E0.13918
G1 X108.292 Y110.002 E0.01697
G1 X110.870 Y112.580 E0.11517
G1 X110.333 Y112.580 E0.01697
G1 X108.292 Y110.539 E0.09117
G1 X108.292 Y111.077 E0.01697
G1 X109.796 Y112.580 E0.06717
G1 X109.258 Y112.580 E0.01697
G1 X108.292 Y111.614 E0.04316
G1 X108.292 Y112.151 E0.01697
G1 X108.891 Y112.750 E0.02674
M106 S255
;BEFORE_LAYER_CHANGE
G92 E0.0
;0.4


G1 F8640
G1 X108.292 Y112.151 E-0.19547
G1 X108.292 Y111.614 E-0.12406
G1 X109.258 Y112.580 E-0.31550
G1 X109.796 Y112.580 E-0.12406
G1 X109.793 Y112.577 E-0.00091
G1 E-0.04000 F2100.00000
G1 Z0.800 F10800.000
;AFTER_LAYER_CHANGE
;0.4
M104 S210 ; set temperature
G1 X141.569 Y115.048
G1 Z0.400
G1 E0.80000 F2100.00000
G1 F3000
G1 X140.811 Y115.691 E0.03119
G1 X140.222 Y115.929 E0.01992
G1 X139.588 Y116.015 E0.02005
G1 X107.351 Y116.015 E1.01077
G1 X106.696 Y115.911 E0.02079
G1 X106.090 Y115.643 E0.02079
G1 X105.575 Y115.231 E0.02066
G1 X105.181 Y114.698 E0.02079
G1 X104.945 Y114.117 E0.01968
G1 X104.857 Y113.495 E0.01968
G1 X104.860 Y96.327 E0.53828
G1 X104.973 Y95.686 E0.02042
G1 X105.242 Y95.097 E0.02029
G1 X105.653 Y94.592 E0.02042
G1 X106.174 Y94.208 E0.02029
G1 X106.767 Y93.969 E0.02005
G1 X107.401 Y93.884 E0.02005
G1 X142.582 Y93.884 E1.10307
G1 X143.345 Y94.002 E0.02423
G1 X144.039 Y94.341 E0.02423
G1 X144.601 Y94.872 E0.02423
G1 X144.979 Y95.546 E0.02423
G1 X145.142 Y96.373 E0.02643
G1 X145.135 Y100.659 E0.13439
G1 X142.027 Y114.160 E0.43437
G1 X141.597 Y114.994 E0.02943
G1 F8640
G1 X140.811 Y115.691 E-0.24257
G1 X140.222 Y115.929 E-0.14673
G1 X139.588 Y116.015 E-0.14764
G1 X138.622 Y116.015 E-0.22306
G1 E-0.04000 F2100.00000
G1 Z1.000 F10800.000
G1 X138.930 Y112.818
G1 Z0.400
G1 E0.80000 F2100.00000
M204 S800
G1 F3600
G1 X108.054 Y112.818 E1.04510
G1 X108.054 Y97.082 E0.53264
G1 X141.946 Y97.082 E1.14718
G1 X141.946 Y99.818 E0.09261
G1 X138.930 Y99.818 E0.10208
G1 X138.930 Y112.758 E0.43800
M204 S1000
G1 F8640
G1 X135.638 Y112.764 E-0.76000
G1 E-0.04000 F2100.00000
G1 Z1.000 F10800.000
G1 X139.337 Y100.225
G1 Z0.400
G1 E0.80000 F2100.00000
M204 S800
G1 X139.337 Y113.225 E0.44003
G1 X107.647 Y113.225 E1.07266
G1 X107.647 Y96.675 E0.56020
G1 X142.353 Y96.675 E1.17474
G1 X142.353 Y100.225 E0.12016
G1 X139.397 Y100.225 E0.10005
M204 S1000
G1 X138.953 Y100.339 F10800.000
G1 F8640
G1 X139.382 Y103.516 E-0.76000
G1 E-0.04000 F2100.00000
G1 Z1.000 F10800.000
G1 X141.164 Y99.696
G1 Z0.400
G1 E0.80000 F2100.00000
M204 S1250
G1 F5745
G1 X141.640 Y99.219 E0.02290
G1 X141.640 Y98.641 E0.01961
G1 X140.769 Y99.513 E0.04184
G1 X140.192 Y99.513 E0.01961
G1 X141.640 Y98.064 E0.06957
G1 X141.640 Y97.486 E0.01961
G1 X139.614 Y99.513 E0.09731
G1 X139.037 Y99.513 E0.01961
G1 X141.162 Y97.387 E0.10206
G1 X140.584 Y97.387 E0.01961
G1 X125.459 Y112.513 E0.72637
G1 X126.037 Y112.513 E0.01961
G1 X138.625 Y99.925 E0.60452
G1 X138.625 Y100.502 E0.01961
G1 X126.614 Y112.513 E0.57678
G1 X127.192 Y112.513 E0.01961
G1 X138.625 Y101.080 E0.54905
G1 X138.625 Y101.657 E0.01961
G1 X127.769 Y112.513 E0.52131
G1 X128.347 Y112.513 E0.01961
G1 X138.625 Y102.235 E0.49358
G1 X138.625 Y102.812 E0.01961
G1 X128.924 Y112.513 E0.46584
G1 X129.502 Y112.513 E0.01961
G1 X138.625 Y103.390 E0.43810
G1 X138.625 Y103.968 E0.01961
G1 X130.079 Y112.513 E0.41037
G1 X130.657 Y112.513 E0.01961
G1 X138.625 Y104.545 E0.38263
G1 X138.625 Y105.123 E0.01961
G1 X131.235 Y112.513 E0.35489
G1 X131.812 Y112.513 E0.01961
G1 X138.625 Y105.700 E0.32716
G1 X138.625 Y106.278 E0.01961
G1 X132.390 Y112.513 E0.29942
G1 X132.967 Y112.513 E0.01961
G1 X138.625 Y106.855 E0.27169
G1 X138.625 Y107.433 E0.01961
G1 X133.545 Y112.513 E0.24395
G1 X134.122 Y112.513 E0.01961
G1 X138.625 Y108.010 E0.21621
G1 X138.625 Y108.588 E0.01961
G1 X134.700 Y112.513 E0.18848
G1 X135.277 Y112.513 E0.01961
G1 X138.625 Y109.166 E0.16074
G1 X138.625 Y109.743 E0.01961
G1 X135.855 Y112.513 E0.13300
G1 X136.433 Y112.513 E0.01961
G1 X138.625 Y110.321 E0.10527
G1 X138.625 Y110.898 E0.01961
G1 X137.010 Y112.513 E0.07753
G1 X137.588 Y112.513 E0.01961
G1 X138.625 Y111.476 E0.04979
G1 X138.625 Y112.053 E0.01961
G1 X137.982 Y112.696 E0.03086
M204 S1000
G1 F8640
G1 X138.625 Y112.053 E-0.20981
G1 X138.625 Y111.476 E-0.13336
G1 X137.588 Y112.513 E-0.33859
G1 X137.249 Y112.513 E-0.07824
G1 E-0.04000 F2100.00000
G1 Z1.000 F10800.000
G1 X124.698 Y112.696
G1 Z0.400
G1 E0.80000 F2100.00000
M204 S1250
G1 F5745
G1 X140.007 Y97.387 E0.73517
G1 X139.429 Y97.387 E0.01961
G1 X124.304 Y112.513 E0.72637
G1 X123.726 Y112.513 E0.01961
G1 X138.852 Y97.387 E0.72637
G1 X138.274 Y97.387 E0.01961
G1 X123.149 Y112.513 E0.72637
G1 X122.571 Y112.513 E0.01961
G1 X137.697 Y97.387 E0.72637
G1 X137.119 Y97.387 E0.01961
G1 X121.994 Y112.513 E0.72637
G1 X121.416 Y112.513 E0.01961
G1 X136.541 Y97.387 E0.72637
G1 X135.964 Y97.387 E0.01961
G1 X120.839 Y112.513 E0.72637
G1 X120.261 Y112.513 E0.01961
G1 X135.386 Y97.387 E0.72637
G1 X134.809 Y97.387 E0.01961
G1 X119.684 Y112.513 E0.72637
G1 X119.106 Y112.513 E0.01961
G1 X134.231 Y97.387 E0.72637
G1 X133.654 Y97.387 E0.01961
G1 X118.528 Y112.513 E0.72637
G1 X117.951 Y112.513 E0.01961
G1 X133.076 Y97.387 E0.72637
G1 X132.499 Y97.387 E0.01961
G1 X117.373 Y112.513 E0.72637
G1 X116.796 Y112.513 E0.01961
G1 X131.921 Y97.387 E0.72637
G1 X131.343 Y97.387 E0.01961
G1 X116.218 Y112.513 E0.72637
G1 X115.641 Y112.513 E0.01961
G1 X130.766 Y97.387 E0.72637
G1 X130.188 Y97.387 E0.01961
G1 X115.063 Y112.513 E0.72637
G1 X114.486 Y112.513 E0.01961
G1 X129.611 Y97.387 E0.72637
G1 X129.033 Y97.387 E0.01961
G1 X113.908 Y112.513 E0.72637
G1 X113.330 Y112.513 E0.01961
G1 X128.456 Y97.387 E0.72637
G1 X127.878 Y97.387 E0.01961
G1 X112.753 Y112.513 E0.72637
G1 X112.175 Y112.513 E0.01961
G1 X127.301 Y97.387 E0.72637
G1 X126.723 Y97.387 E0.01961
G1 X111.598 Y112.513 E0.72637
G1 X111.020 Y112.513 E0.01961
G1 X126.145 Y97.387 E0.72637
G1 X125.568 Y97.387 E0.01961
G1 X110.443 Y112.513 E0.72637
G1 X109.865 Y112.513 E0.01961
G1 X124.990 Y97.387 E0.72637
G1 X124.413 Y97.387 E0.01961
G1 X109.288 Y112.513 E0.72637
G1 X108.710 Y112.513 E0.01961
G1 X123.835 Y97.387 E0.72637
G1 X123.258 Y97.387 E0.01961
G1 X108.360 Y112.285 E0.71546
G1 X108.360 Y111.708 E0.01961
G1 X122.680 Y97.387 E0.68773
G1 X122.103 Y97.387 E0.01961
G1 X108.360 Y111.130 E0.65999
G1 X108.360 Y110.553 E0.01961
G1 X121.525 Y97.387 E0.63225
G1 X120.947 Y97.387 E0.01961
G1 X108.360 Y109.975 E0.60452
G1 X108.360 Y109.398 E0.01961
G1 X120.370 Y97.387 E0.57678
G1 X119.792 Y97.387 E0.01961
G1 X108.360 Y108.820 E0.54904
G1 X108.360 Y108.243 E0.01961
G1 X119.215 Y97.387 E0.52131
M73 Q5 S33
G1 X118.637 Y97.387 E0.01961
G1 X108.360 Y107.665 E0.49357
G1 X108.360 Y107.087 E0.01961
G1 X118.060 Y97.387 E0.46584
G1 X117.482 Y97.387 E0.01961
G1 X108.360 Y106.510 E0.43810
G1 X108.360 Y105.932 E0.01961
G1 X116.905 Y97.387 E0.41036
